src/images/assets/back-button.svg

<svg xmlns="http://www.w3.org/2000/svg" xmlns:xlink="http://www.w3.org/1999/xlink" width="200" zoomAndPan="magnify" viewBox="0 0 150 149.999998" height="200" preserveAspectRatio="xMidYMid meet" version="1.0"><defs><clipPath id="8ad6ae4938"><path d="M 0.00390625 54 L 149.96875 54 L 149.96875 97.375 L 0.00390625 97.375 Z M 0.00390625 54 " clip-rule="nonzero"/></clipPath><clipPath id="e6619a42ad"><path d="M 0.00390625 52.625 L 149.96875 52.625 L 149.96875 96 L 0.00390625 96 Z M 0.00390625 52.625 " clip-rule="nonzero"/></clipPath></defs><g clip-path="url(#8ad6ae4938)"><path fill="#3d78b8" d="M 149.96875 76.148438 C 149.96875 87.867188 140.46875 97.367188 128.753906 97.367188 L 21.246094 97.367188 C 9.53125 97.367188 0.03125 87.867188 0.03125 76.148438 C 0.03125 64.433594 9.53125 54.933594 21.246094 54.933594 L 128.753906 54.933594 C 140.46875 54.933594 149.96875 64.433594 149.96875 76.148438 Z M 149.96875 76.148438 " fill-opacity="1" fill-rule="evenodd"/></g><g clip-path="url(#e6619a42ad)"><path fill="#ffffff" d="M 149.96875 73.839844 C 149.96875 85.558594 140.46875 95.058594 128.753906 95.058594 L 21.246094 95.058594 C 9.53125 95.058594 0.03125 85.558594 0.03125 73.839844 C 0.03125 62.125 9.53125 52.625 21.246094 52.625 L 128.753906 52.625 C 140.46875 52.625 149.96875 62.125 149.96875 73.839844 Z M 149.96875 73.839844 " fill-opacity="1" fill-rule="evenodd"/></g><path fill="#14213d" d="M 148.03125 73.839844 C 148.03125 84.695312 139.230469 93.496094 128.375 93.496094 L 21.625 93.496094 C 10.769531 93.496094 1.96875 84.695312 1.96875 73.839844 C 1.96875 62.984375 10.769531 54.1875 21.625 54.1875 L 128.375 54.1875 C 139.230469 54.1875 148.03125 62.984375 148.03125 73.839844 Z M 148.03125 73.839844 " fill-opacity="1" fill-rule="evenodd"/><path fill="#ffffff" d="M 41.019531 74.816406 L 41.019531 76.941406 L 43.503906 76.941406 C 44.011719 76.941406 44.402344 76.855469 44.664062 76.679688 C 44.929688 76.503906 45.058594 76.238281 45.058594 75.878906 C 45.058594 75.519531 44.929688 75.25 44.664062 75.078125 C 44.402344 74.902344 44.011719 74.816406 43.503906 74.816406 Z M 54.402344 71.507812 L 53.058594 74.859375 L 55.746094 74.859375 Z M 41.019531 70.742188 L 41.019531 72.761719 L 43.054688 72.761719 C 43.554688 72.761719 43.925781 72.679688 44.175781 72.507812 C 44.429688 72.339844 44.550781 72.082031 44.550781 71.746094 C 44.550781 71.40625 44.429688 71.152344 44.175781 70.988281 C 43.925781 70.824219 43.554688 70.742188 43.054688 70.742188 Z M 72.449219 68.597656 L 75.386719 68.597656 L 75.386719 72.953125 L 79.441406 68.597656 L 82.707031 68.597656 L 78.425781 73.238281 L 82.933594 79.082031 L 79.488281 79.082031 L 76.484375 75.277344 L 75.386719 76.457031 L 75.386719 79.082031 L 72.449219 79.082031 Z M 52.964844 68.597656 L 55.886719 68.597656 L 60.527344 79.082031 L 57.441406 79.082031 L 56.625 77.046875 L 52.179688 77.046875 L 51.363281 79.082031 L 48.335938 79.082031 Z M 38.082031 68.597656 L 43.445312 68.597656 C 44.820312 68.597656 45.851562 68.851562 46.527344 69.355469 C 47.207031 69.859375 47.546875 70.519531 47.546875 71.339844 C 47.546875 71.878906 47.40625 72.351562 47.121094 72.753906 C 46.90625 73.058594 46.628906 73.3125 46.285156 73.523438 L 46.113281 73.613281 L 46.320312 73.683594 C 46.867188 73.910156 47.292969 74.234375 47.597656 74.65625 C 47.902344 75.082031 48.058594 75.597656 48.058594 76.207031 C 48.058594 77.117188 47.6875 77.824219 46.957031 78.328125 C 46.222656 78.832031 45.152344 79.082031 43.742188 79.082031 L 38.082031 79.082031 Z M 66.597656 68.390625 C 67.5625 68.390625 68.429688 68.558594 69.191406 68.898438 C 69.957031 69.238281 70.59375 69.726562 71.105469 70.367188 L 69.214844 72.074219 C 68.875 71.675781 68.503906 71.371094 68.101562 71.160156 C 67.695312 70.949219 67.242188 70.847656 66.746094 70.847656 C 66.316406 70.847656 65.921875 70.914062 65.5625 71.054688 C 65.203125 71.195312 64.898438 71.398438 64.640625 71.664062 C 64.386719 71.925781 64.1875 72.242188 64.042969 72.613281 C 63.898438 72.984375 63.824219 73.390625 63.824219 73.839844 C 63.824219 74.289062 63.898438 74.699219 64.042969 75.070312 C 64.1875 75.4375 64.386719 75.757812 64.640625 76.019531 C 64.898438 76.285156 65.203125 76.488281 65.5625 76.628906 C 65.921875 76.765625 66.316406 76.835938 66.746094 76.835938 C 67.242188 76.835938 67.695312 76.730469 68.101562 76.523438 C 68.503906 76.3125 68.875 76.007812 69.214844 75.609375 L 71.105469 77.316406 C 70.59375 77.945312 69.957031 78.433594 69.191406 78.777344 C 68.429688 79.121094 67.5625 79.292969 66.597656 79.292969 C 65.765625 79.292969 65 79.160156 64.296875 78.898438 C 63.59375 78.632812 62.984375 78.253906 62.46875 77.765625 C 61.957031 77.277344 61.550781 76.699219 61.261719 76.035156 C 60.972656 75.371094 60.828125 74.640625 60.828125 73.839844 C 60.828125 73.042969 60.972656 72.3125 61.261719 71.648438 C 61.550781 70.984375 61.957031 70.40625 62.46875 69.917969 C 62.984375 69.429688 63.59375 69.050781 64.296875 68.785156 C 65 68.523438 65.765625 68.390625 66.597656 68.390625 Z M 66.597656 68.390625 " fill-opacity="1" fill-rule="evenodd"/><path fill="#ffffff" d="M 127.015625 66.167969 C 126.792969 66.152344 126.539062 66.246094 126.269531 66.460938 L 118.589844 72.601562 C 117.722656 73.292969 117.722656 74.414062 118.589844 75.109375 L 122.429688 78.175781 L 126.269531 81.246094 C 127.132812 81.9375 127.839844 81.375 127.839844 79.992188 L 127.839844 77.003906 L 135.457031 77.003906 C 136.125 77.003906 136.671875 76.460938 136.671875 75.792969 L 136.671875 71.917969 C 136.671875 71.246094 136.125 70.703125 135.457031 70.703125 L 127.839844 70.703125 L 127.839844 67.714844 C 127.839844 66.765625 127.507812 66.199219 127.015625 66.167969 Z M 127.304688 58.996094 C 135.507812 58.996094 142.164062 65.648438 142.164062 73.855469 C 142.164062 82.058594 135.507812 88.710938 127.304688 88.710938 C 119.101562 88.710938 112.445312 82.058594 112.445312 73.855469 C 112.445312 65.648438 119.101562 58.996094 127.304688 58.996094 Z M 127.304688 58.996094 " fill-opacity="1" fill-rule="evenodd"/></svg>

<svg xmlns="http://www.w3.org/2000/svg" width="200" viewBox="0 0 150 150" height="200" version="1.0"><defs><clipPath id="a"><path d="M.004 54h149.965v43.375H.004Zm0 0"/></clipPath><clipPath id="b"><path d="M.004 52.625h149.965V96H.004Zm0 0"/></clipPath></defs><g clip-path="url(#a)"><path fill="#3d78b8" d="M149.969 76.148c0 11.72-9.5 21.22-21.215 21.22H21.246c-11.715 0-21.215-9.5-21.215-21.22 0-11.714 9.5-21.214 21.215-21.214h107.508c11.715 0 21.215 9.5 21.215 21.214Zm0 0" fill-rule="evenodd"/></g><g clip-path="url(#b)"><path fill="#fff" d="M149.969 73.84c0 11.719-9.5 21.219-21.215 21.219H21.246c-11.715 0-21.215-9.5-21.215-21.22 0-11.714 9.5-21.214 21.215-21.214h107.508c11.715 0 21.215 9.5 21.215 21.215Zm0 0" fill-rule="evenodd"/></g><path fill="#14213d" d="M148.031 73.84c0 10.855-8.8 19.656-19.656 19.656H21.625c-10.855 0-19.656-8.8-19.656-19.656 0-10.856 8.8-19.653 19.656-19.653h106.75c10.855 0 19.656 8.797 19.656 19.653Zm0 0" fill-rule="evenodd"/><path fill="#fff" d="M41.02 74.816v2.125h2.484c.508 0 .898-.086 1.16-.261.266-.176.395-.442.395-.801 0-.36-.13-.629-.395-.8-.262-.177-.652-.263-1.16-.263Zm13.382-3.308-1.343 3.351h2.687Zm-13.382-.766v2.02h2.035c.5 0 .87-.082 1.12-.254.255-.168.376-.426.376-.762 0-.34-.121-.594-.375-.758-.25-.164-.621-.246-1.121-.246Zm31.43-2.144h2.937v4.355l4.054-4.355h3.266l-4.281 4.64 4.508 5.844h-3.446l-3.004-3.805-1.097 1.18v2.625h-2.938Zm-19.485 0h2.922l4.64 10.484h-3.086l-.816-2.035H52.18l-.817 2.035h-3.027Zm-14.883 0h5.363c1.375 0 2.407.254 3.082.757.68.504 1.02 1.165 1.02 1.985 0 .539-.14 1.012-.426 1.414a2.782 2.782 0 0 1-.836.77l-.172.09.207.07c.547.226.973.55 1.278.972.304.426.46.942.46 1.551 0 .91-.37 1.617-1.101 2.121-.734.504-1.805.754-3.215.754h-5.66Zm28.516-.207c.965 0 1.832.168 2.593.507.766.34 1.403.829 1.914 1.47l-1.89 1.706a3.777 3.777 0 0 0-1.113-.914 2.898 2.898 0 0 0-1.356-.312c-.43 0-.824.066-1.183.207a2.57 2.57 0 0 0-.922.61 2.807 2.807 0 0 0-.598.948 3.343 3.343 0 0 0-.219 1.227c0 .45.074.86.219 1.23.144.368.344.688.598.95.257.265.562.468.921.609.36.137.754.207 1.184.207.496 0 .95-.106 1.356-.313.402-.21.773-.515 1.113-.914l1.89 1.707a5.147 5.147 0 0 1-1.914 1.461c-.761.344-1.629.516-2.593.516a6.541 6.541 0 0 1-2.301-.395 5.406 5.406 0 0 1-1.828-1.132 5.293 5.293 0 0 1-1.207-1.73 5.438 5.438 0 0 1-.434-2.196c0-.797.145-1.528.434-2.192a5.293 5.293 0 0 1 1.207-1.73 5.406 5.406 0 0 1 1.828-1.133 6.541 6.541 0 0 1 2.3-.394ZM127.016 66.168c-.223-.016-.477.078-.746.293l-7.68 6.14c-.867.692-.867 1.813 0 2.508l3.84 3.067 3.84 3.07c.863.692 1.57.129 1.57-1.254v-2.988h7.617c.668 0 1.215-.543 1.215-1.211v-3.875c0-.672-.547-1.215-1.215-1.215h-7.617v-2.988c0-.95-.332-1.516-.824-1.547Zm.289-7.172c8.203 0 14.86 6.652 14.86 14.86 0 8.203-6.657 14.855-14.86 14.855s-14.86-6.652-14.86-14.856c0-8.207 6.657-14.859 14.86-14.859Zm0 0" fill-rule="evenodd"/></svg>
